X:1
T:Title
%%score { ( 1 3 4 ) | ( 2 5 6 ) }
L:1/8
Q:1/4=100
M:4/4
K:C
V:1 treble nm="Grand Piano"
V:3 treble 
V:4 treble 
V:2 bass 
V:5 bass 
V:6 bass 
V:1
 [EG]>[EG] [EG]>[EG] [FA]>[EG] [CE]>[EG] | A>c B>d [Ec]4 | %2
w: L.~E.~Jones * * * * * * *||
 [FA]>[Ac] [Ac]>[FA] [FA]>[EG] [Ec]>[Gc] | [Fd]6 z2 | [EG]>[EG] [EG]>[EG] [FA]>[EG] [CE]>[EG] | %5
w: |||
 A>c B>d [CEc]4 | [CFA]>[CAc] [CAc]>[CFA] [CG]>[CEc] [Fd]>[Fd] |[M:3/4] [CEc]6 |[M:1/4] e>e | %9
w: ||||
[M:4/4] d6 z2 | G6 z2 | [CFA]>[CFA] [CFA]>[CFA] [D^FA]>[CFA] [B,FB]>[Fc] | d6 z2 | %13
w: ||||
 [Ec]>[EG] [EG]>[EG] [EG]2 [Gc]>[GB] | [GB]>A A>A A4 | A>A B>A G>c [Fd]>[Fd] | [Ec]6 z2 |] %17
w: ||||
V:2
 [C,C]>[C,C] [C,C]>[C,C] [C,C]>[C,C] [C,G,]>[C,C] | [F,CF]>[F,A,F] [G,F]>[G,B,F][K:bass] [C,C]4 | %2
 [F,C]>[F,C] [F,C]>[F,C] [C,C]>[C,C] [C,G,]>[E,C] | [G,B,]6 z2 | %4
 [C,C]>[C,C] [C,C]>[C,C] [C,C]>[C,C] [C,G,]>[C,C] | [F,CF]>[F,A,F] [G,F]>[G,B,F][K:bass] C,4 | %6
 F,>F, F,>F, E,>C, [G,B,]>[G,B,] |[M:3/4] C,6 |[M:1/4][K:treble] G>G |[M:4/4] F6 z2 | %10
 E6[K:bass] z2 | F,>F, F,>F, D,>D, D,>[D,A,] | %12
 [G,B,G]2 [D,A,]>[D,C] [G,B,]2[K:treble] [G,G]>[G,F] | %13
 [C,G,]>[C,C] [C,C]>[C,C] [C,C]2 [E,C]>[E,C] | [F,C]>[F,CF] [F,CF]>[F,CF] [F,CF]4 | %15
 [^F,C_E]>[F,CE] [F,B,E]>[F,CE] [G,C=E]>[G,E] [G,,G,]>[G,,G,] | [C,G,]6 z2 |] %17
V:3
 x8 | x8 | x8 | x8 | x8 | x8 | x8 |[M:3/4] x6 |[M:1/4] x2 |[M:4/4] z2 B,>B, z z/ c/ B>A | %10
 z2 C>C C2 [CEG]>[CEG] | x8 | z2 F>A G2 e>d | x8 | x8 | x8 | x8 |] %17
V:4
 x8 | x8 | x8 | x8 | x8 | x8 | x8 |[M:3/4] x6 |[M:1/4] x2 |[M:4/4] z4 B,2 z2 | x8 | x8 | x8 | x8 | %14
 x8 | x8 | x8 |] %17
V:5
 x8 | x4[K:bass] x4 | x8 | x8 | x8 | x4[K:bass] x4 | x8 |[M:3/4] x6 |[M:1/4][K:treble] x2 | %9
[M:4/4] z2 G,>G, z z/ A/ G>F | z2[K:bass] C,>C, C,2 C,>C, | x8 | x6[K:treble] x2 | x8 | x8 | x8 | %16
 x8 |] %17
V:6
 x8 | x4[K:bass] x4 | x8 | x8 | x8 | x4[K:bass] x4 | x8 |[M:3/4] x6 |[M:1/4][K:treble] x2 | %9
[M:4/4] z4 G,2 z2 | x2[K:bass] x6 | x8 | x6[K:treble] x2 | x8 | x8 | x8 | x8 |] %17

